website/components/subnav/img/download.svg

<svg width="14" height="16" viewBox="0 0 14 16">
  <path
    fill="#000"
    d="M6.73406 11.0468C6.79606 11.1088 6.86939 11.1575 6.95139 11.1915C7.03273 11.2248 7.11939 11.2428 7.20606 11.2428C7.29273 11.2428 7.37939 11.2255 7.46073 11.1915C7.54273 11.1575 7.61606 11.1088 7.67806 11.0468L10.3441 8.38084C10.6047 8.12017 10.6047 7.69884 10.3441 7.43817C10.0834 7.17751 9.66206 7.17751 9.40139 7.43817L7.87273 8.96684V1.24284C7.87273 0.874839 7.57473 0.576172 7.20606 0.576172C6.83739 0.576172 6.53939 0.874839 6.53939 1.24284V8.96684L5.01073 7.43817C4.75006 7.17751 4.32873 7.17751 4.06806 7.43817C3.80739 7.69884 3.80739 8.12017 4.06806 8.38084L6.73406 11.0468ZM13.8729 11.2428V13.2428C13.8729 14.3455 12.9755 15.2428 11.8729 15.2428H2.53955C1.43688 15.2428 0.539551 14.3455 0.539551 13.2428V11.2428C0.539551 10.8748 0.837551 10.5762 1.20622 10.5762C1.57488 10.5762 1.87288 10.8748 1.87288 11.2428V13.2428C1.87288 13.6102 2.17155 13.9095 2.53955 13.9095H11.8729C12.2409 13.9095 12.5395 13.6102 12.5395 13.2428V11.2428C12.5395 10.8748 12.8376 10.5762 13.2062 10.5762C13.5749 10.5762 13.8729 10.8748 13.8729 11.2428Z"
  />
</svg>

<svg width="14" height="16"><path d="M6.734 11.047a.667.667 0 0 0 .944 0l2.666-2.666a.666.666 0 1 0-.943-.943L7.873 8.967V1.243a.666.666 0 1 0-1.334 0v7.724L5.011 7.438a.666.666 0 1 0-.943.943l2.666 2.666zm7.139.196v2c0 1.102-.897 2-2 2H2.54c-1.103 0-2-.898-2-2v-2a.666.666 0 1 1 1.333 0v2c0 .367.299.666.667.666h9.333c.368 0 .667-.299.667-.666v-2a.666.666 0 1 1 1.333 0z"/></svg>
